X: 60
P: No. LX.
M: 3/4
L: 1/8
K: Dm
V: 1
d2d2cA | d4cd | e2(ge)(dc) | d4de |\
f2f2ed | e2e2dc | d2a2(ge) | d4(cA) |
V: 2 clef=bass middle=d
z2 |\
d2d2e2 | f2f2f2 | e2e2e2 | d4bc' |\
d'2d'2c'b | c'2c'2ba | f2d2a2 | d4z2 |
e2f2e2 | c2e2g2 | c'2e2f2 | e2c2z2 |\
f2a2c'2 | a2f2g2 | f2d2a2 | d4 |]

